X: 14
T:Rosalie de bon matin
M:3/4
L:1/4
R:Valse
O:France
K:C
GAB|c2 B/2c/2|dAB|c3|ced|c2B|ABc|d3|d3:|!
|:def|g2 g|fga|g3|fed|c3|1ABc|d3|d3:|2dAB|c3|c3||
